svg/motor_outline.svg

<svg width="24" height="24" viewBox="0 0 24 24"  xmlns="http://www.w3.org/2000/svg">
<path fill-rule="evenodd" clip-rule="evenodd" d="M12 20C16.4183 20 20 16.4183 20 12C20 7.58172 16.4183 4 12 4C7.58172 4 4 7.58172 4 12C4 16.4183 7.58172 20 12 20ZM12 22C17.5228 22 22 17.5228 22 12C22 6.47715 17.5228 2 12 2C6.47715 2 2 6.47715 2 12C2 17.5228 6.47715 22 12 22Z" />
<path d="M10.8574 16.5L9.10547 10.3301H9.05273C9.13477 11.3809 9.17578 12.1973 9.17578 12.7793V16.5H7.125V7.93359H10.207L11.9941 14.0156H12.041L13.793 7.93359H16.8809V16.5H14.7539V12.7441C14.7539 12.5488 14.7559 12.332 14.7598 12.0938C14.7676 11.8555 14.7949 11.2715 14.8418 10.3418H14.7891L13.0605 16.5H10.8574Z" />
</svg>

<svg width="24" height="24" viewBox="0 0 24 24" xmlns="http://www.w3.org/2000/svg"><path fill-rule="evenodd" clip-rule="evenodd" d="M12 20a8 8 0 1 0 0-16 8 8 0 0 0 0 16zm0 2c5.523 0 10-4.477 10-10S17.523 2 12 2 2 6.477 2 12s4.477 10 10 10z"/><path d="M10.857 16.5l-1.752-6.17h-.052c.082 1.05.123 1.867.123 2.45v3.72H7.125V7.934h3.082l1.787 6.082h.047l1.752-6.082h3.088V16.5h-2.127v-3.756c0-.195.002-.412.006-.65.008-.239.035-.822.082-1.752h-.053L13.06 16.5h-2.203z"/></svg>
